X:1
T:Title
%%score ( 1 2 ) { 3 | 4 }
L:1/8
M:2/2
K:Eb
V:1 treble nm="Viola, Staff"
V:2 treble 
V:3 bass nm="E.Piano 2, Staff-1"
V:4 bass 
V:1
 [B,E]4 [DF]4 |[M:3/2] [EG]6 [FB]2 [EA]2 [EG]2 |[M:2/2] F2- [DF]2 E4 | [EA]2 [EG]2 [DF]4 | %4
w: By~Johann~Cr�ger,~1656 *||||
 [EG]2 [E=A]2 [DB]4 | [CA]2 [FB]2 [=Ec]2 F2 | G2- [=EG]2 F4 | [FB]4 [EG]4 | %8
w: ||||
 [EA]2 B-[GB] [Ac]2 [Ac]2 | [G=B]4 [Gc]4 | [Bd]2 [Fd]2 [Ge]4 | [FB]2 [FA]2 [EG]4 | %12
w: ||||
 [Ac]2 [FB]2 [EA]2 [EG]2 | F4 z4 |] %14
w: ||
V:2
 x8 |[M:3/2] x12 |[M:2/2] .E4 z4 | x8 | x8 | x8 | .F4 z4 | x8 | z2 .F2 z4 | x8 | x8 | x8 | x8 | %13
 E2 D2 E4 |] %14
V:3
 G,4 B,4 |[M:3/2] B,6 B,2 C2 B,2 |[M:2/2] B,4 G,4 | C2 B,2 B,4 | B,2 C2 F,4 | %5
 A,2 F,2 G,2[K:treble] C2 | _D2 C2 A,4 | B,4 B,4 | C2 _D2 E2 F2 | D4 E4 | F2[K:bass] B,2 B,4 | %11
 B,2 D2 E4 | E2 D2 C2 B,2 | B,4 G,4 |] %14
V:4
 E,4 B,,4 |[M:3/2] E,6 D,2 C,2 E,2 |[M:2/2] B,,4 E,4 | C,2 E,2 B,,4 | E,2 C,2 B,,4 | %5
 F,2 _D,2 C,2 A,,2 | B,,2 C,2 F,4 | D,4 E,4 | z2 B,2 A,2 F,2 | G,4 C,4 | B,,2 B,,2 E,4 | %11
 D,2 F,2 C,4 | A,,2 B,,2 C,2 E,2 | B,,4 E,4 |] %14

